X:1
T: Now is the Month of July
N:
C:Thomas Morley
S:
A:
O:
R:
M:4/4
K:C
I:speed 200
%W: A1
% voice 1 (1 lines, 29 notes)
K:C
M:4/4
L:1/16
G4 |G4 G4 A4 A4 |B12 G4 |B6 A2 B4 ^c4 |d12 A2 B2 |c4 c4 B4 G4 |A4 ^F4 D4 d2 c2 |B4 c4 A4 A4 |G12 G4 |
%W: A2
% voice 1 (1 lines, 28 notes)
G4 G4 A4 A4 |B12 G4 |B6 A2 B4 ^c4 |d12 A2 B2 |c4 c4 B4 G4 |A4 ^F4 D4 d2 c2 |B4 c4 A4 A4 |G12 _B4 |
%W: B1
% voice 1 (1 lines, 30 notes)
A4 d4 d4 ^c4 |d12 A4 |c4 c4 B4 B4 |A8 z4 d2 c2 |B4 G4 d8 |D2 E2 ^F2 G2 A2 B2 c4 |B6 c2 B4 A4 |G12 _B4 |
%W: B2
% voice 1 (1 lines, 29 notes)
A4 d4 d4 ^c4 |d12 A4 |c4 c4 B4 B4 |A8 z4 d2 c2 |B4 G4 d8 |D2 E2 ^F2 G2 A2 B2 c4 |B6 c2 B4 A4 |G12 ||
